X: 1
T: Gavotenn Jean-Louis Joncourt (ton simple)
%O: Brittany, France
S: PDF from Steve Gruverman
S: As learned from Dominique Jouve, (9/04) and from the recording "Sonneurs de Clarinette en Bretagne".
M: 4/4
L: 1/8
Q: 1/4=152
P: form: ABABC
K: C
"A"|: "C"ce ed cB"Am"A2 | "G"Bc d>B "C"c2 c2 :|
"B"|: "C"ce ed "F"cB AG | "Am"AB cd "G"B2 B2 :|
"C"|: "Am"ce ee "Dm"dd "Am"c2 | "Am"ce ee "Dm"dd "Am"c2 |
   |  "Am"ce ee "Dm"dd  "C"c2 | "Am"AB cd  "G"B2 B2 :|

%%sep 1 1 500
%%sep 1 1 500


